img/icons-payable-taxes/05.svg

<svg width="46" height="48" viewBox="0 0 46 48" fill="none" xmlns="http://www.w3.org/2000/svg">
<path d="M45.0303 20.4982L28.1203 0.938392C27.9031 0.686981 27.5881 0.542908 27.2565 0.542908C26.9252 0.542908 26.6099 0.686981 26.3931 0.938392L17.1849 11.5898C16.9365 11.8768 16.9674 12.3116 17.2535 12.5607C17.5396 12.8095 17.9731 12.7788 18.2211 12.4913L27.2565 2.0399L44.0006 21.408C44.0055 21.4135 44.0104 21.4192 44.0155 21.4247C44.4498 21.8956 44.5565 22.5282 44.3005 23.116C44.0441 23.7043 43.5094 24.0553 42.8691 24.0553C42.4168 24.0553 41.9871 23.859 41.6901 23.516L28.12 7.84589C27.9025 7.59476 27.5878 7.45098 27.2565 7.45098C26.967 7.45098 26.6897 7.56118 26.4795 7.75692C26.4494 7.78447 26.4208 7.81432 26.3936 7.84589L13.6029 22.6157C13.5173 22.492 13.4298 22.3692 13.3359 22.2498C12.8804 21.6658 12.7488 20.8567 12.9929 20.1389C13.1974 19.5377 13.301 18.9083 13.301 18.2683C13.301 18.2404 13.2999 18.2123 13.2996 18.1845L16.2121 14.8154C16.4602 14.5284 16.4295 14.0939 16.1429 13.845C15.8568 13.5956 15.4239 13.6269 15.1756 13.9139L13.0029 16.4269C12.8481 15.9634 12.6347 15.5191 12.3655 15.105C11.9369 14.4463 11.8719 13.6077 12.1912 12.8621C12.4942 12.1549 12.631 11.4024 12.5978 10.6255C12.4879 8.05999 10.4019 5.92242 7.84962 5.75883C6.42741 5.66814 5.07328 6.15403 4.03788 7.12839C3.01707 8.08955 2.43113 9.44562 2.43113 10.8496C2.43113 11.541 2.56703 12.2117 2.83453 12.8434C3.15669 13.6039 3.0946 14.4494 2.66859 15.105C2.05634 16.0463 1.73275 17.1404 1.73275 18.2685C1.73275 18.9246 1.84176 19.5687 2.05605 20.1834C2.29666 20.8722 2.14961 21.6609 1.6638 22.294C0.61953 23.6526 0.076508 25.35 0.135159 27.072C0.20039 28.9848 0.998902 30.7797 2.38392 32.1257C3.60815 33.3153 5.16741 34.0343 6.8311 34.1901V35.8139C5.34022 36.0194 4.21898 37.2504 4.22327 38.7465C4.22385 39.0042 4.25732 39.2568 4.32255 39.5016L4.31311 39.5013C4.30224 39.5007 4.29194 39.5005 4.28107 39.5005C3.70142 39.5005 3.14209 39.6219 2.61795 39.8612C2.2732 40.0182 2.12071 40.4266 2.27778 40.7721C2.43428 41.1183 2.8414 41.271 3.18615 41.1137C3.52576 40.9584 3.88911 40.8789 4.26619 40.8766L4.6613 40.8953C5.03151 40.9122 5.38313 40.7432 5.60114 40.4427C5.81944 40.1425 5.8718 39.755 5.74162 39.4066C5.73733 39.3943 5.73246 39.3825 5.72731 39.3707C5.64063 39.1727 5.59571 38.9612 5.59542 38.7425C5.59285 37.8849 6.30238 37.1901 7.21161 37.1605C8.4759 37.1181 8.95798 37.9403 9.14166 38.6366C9.25295 39.0568 9.602 39.3736 10.0317 39.4433C10.8405 39.5751 11.3332 39.8862 11.6296 40.453C11.8848 40.9398 12.463 41.1688 12.9749 40.9854C13.3245 40.8603 13.6921 40.8103 14.0683 40.8376C15.3867 40.932 16.4473 42.0002 16.536 43.3227C16.5869 44.0752 16.3337 44.791 15.8233 45.3389C15.3123 45.887 14.6191 46.1887 13.8718 46.1887H4.3503C2.89147 46.1887 1.67324 45.0309 1.63434 43.6077C1.62861 43.3965 1.64721 43.1858 1.69012 42.9818C1.76823 42.6101 1.53105 42.245 1.16055 42.1667C0.789189 42.0883 0.425839 42.3265 0.347733 42.6979C0.282502 43.0076 0.254178 43.3261 0.262761 43.6456C0.32227 45.8067 2.15533 47.5648 4.3503 47.5648L41.1725 47.4472C41.5513 47.4472 41.8586 47.1389 41.8586 46.7589V25.2507C42.179 25.3686 42.5206 25.4318 42.8691 25.4318C44.0533 25.4318 45.0835 24.7556 45.5576 23.667C46.0303 22.5827 45.828 21.3693 45.0303 20.4982ZM12.6547 39.4956C12.1655 38.766 11.4293 38.3117 10.418 38.1145C10.224 37.5041 9.65521 36.2617 8.20296 35.8903V34.1907C9.8778 34.0368 11.4345 33.3208 12.6547 32.134V39.4956ZM11.7621 31.0871C10.7905 32.0586 9.54621 32.6547 8.20296 32.8068V28.7546L10.729 26.5304C11.0136 26.2796 11.0417 25.8447 10.7919 25.5592C10.5418 25.2736 10.1084 25.2452 9.82373 25.496L8.20296 26.9233V20.785L9.8243 19.3571C10.109 19.1063 10.1373 18.6715 9.88724 18.3859C9.63747 18.1001 9.20403 18.0722 8.91936 18.3228L8.20296 18.9536V13.6232C8.20296 13.2429 7.89568 12.9352 7.51688 12.9352C7.13837 12.9352 6.8311 13.2429 6.8311 13.6232V18.9536L6.1147 18.3228C5.83003 18.0717 5.39658 18.1004 5.14653 18.3856C4.89676 18.6715 4.9248 19.1063 5.20947 19.3568L6.8311 20.7847V26.9233L5.21033 25.496C4.92566 25.2452 4.49221 25.2736 4.24216 25.5592C3.99268 25.8447 4.02043 26.2796 4.3051 26.5304L6.8311 28.7546V32.8048C3.93746 32.4641 1.60744 29.9991 1.50645 27.0249C1.45838 25.622 1.90041 24.2401 2.75013 23.1338C3.52089 22.131 3.74548 20.8579 3.35095 19.7282C3.18758 19.2604 3.1049 18.7691 3.1049 18.2683C3.1049 17.4075 3.35123 16.5735 3.81758 15.8566C4.49393 14.8159 4.59864 13.4883 4.09739 12.3047C3.90198 11.8444 3.80328 11.3547 3.80328 10.8493C3.80328 9.80954 4.22013 8.84436 4.97687 8.13231C5.67267 7.47709 6.56617 7.12408 7.51517 7.12408C7.59699 7.12408 7.67939 7.12667 7.76207 7.13212C9.62489 7.25151 11.1469 8.81164 11.2271 10.6843C11.2514 11.2531 11.1518 11.8025 10.9309 12.3185C10.4294 13.4883 10.5364 14.8111 11.2159 15.8566C11.6825 16.5735 11.9292 17.4075 11.9292 18.2683C11.9292 18.7564 11.8499 19.2366 11.6945 19.6944C11.2963 20.865 11.5063 22.1373 12.2559 23.0979C13.0902 24.167 13.5313 25.4518 13.5313 26.8134C13.5313 28.4292 12.9028 29.9465 11.7621 31.0871ZM32.9763 46.071H21.537V44.8208H32.9763V46.071ZM23.5283 37.4229L27.2565 33.175L30.985 37.4229V43.4447H23.5283V37.4229ZM21.7739 37.2868C21.6501 37.4269 21.4724 37.5072 21.2856 37.5072C20.8919 37.5072 20.7299 37.2088 20.6899 37.1178C20.6496 37.0262 20.5388 36.7054 20.8043 36.4132L27.2565 29.3146L33.709 36.4132C33.9742 36.7054 33.8638 37.0262 33.8237 37.1178C33.7834 37.2088 33.6217 37.5072 33.2275 37.5072C33.0409 37.5072 32.8633 37.4269 32.7394 37.2868L28.0387 31.9578C27.8407 31.7334 27.5555 31.6045 27.2565 31.6045C26.9575 31.6045 26.6726 31.7334 26.474 31.9578L21.7739 37.2868ZM40.4867 46.071H34.3484V44.5912C34.3484 43.959 33.8354 43.4447 33.2052 43.4447H32.3569V38.6851C32.6261 38.8139 32.9228 38.8834 33.2275 38.8834C34.0409 38.8834 34.7504 38.4199 35.0785 37.6734C35.407 36.9272 35.2708 36.0889 34.7229 35.4862L28.0284 28.1209C27.831 27.904 27.5498 27.7791 27.2565 27.7791C26.9633 27.7791 26.6823 27.904 26.4846 28.1209L19.7904 35.4862C19.2425 36.0889 19.1063 36.9272 19.4345 37.6734C19.7632 38.4199 20.4725 38.8834 21.2856 38.8834C21.5903 38.8834 21.8872 38.8139 22.1562 38.6851V43.4447H21.3082C20.6776 43.4447 20.1649 43.959 20.1649 44.5912V46.071H17.0046C17.6558 45.2723 17.9748 44.2744 17.9047 43.2297C17.7699 41.2265 16.1626 39.6078 14.1659 39.4646C14.1196 39.4614 14.0729 39.4594 14.0269 39.4574V30.3214C14.5991 29.2557 14.9035 28.0581 14.9035 26.8134C14.9035 25.7934 14.7006 24.8087 14.3104 23.8975L27.2565 8.94768L40.4865 24.2246V46.071H40.4867Z" fill="#007A65"/>
</svg>

<svg width="46" height="48" fill="none" xmlns="http://www.w3.org/2000/svg"><path d="M45.03 20.498L28.12.938a1.141 1.141 0 00-1.727 0L17.185 11.59a.69.69 0 00.069.97c.286.25.72.219.967-.069L27.256 2.04l16.745 19.368.015.017c.434.47.54 1.103.285 1.691-.257.588-.792.94-1.432.94a1.56 1.56 0 01-1.179-.54L28.12 7.846a1.142 1.142 0 00-1.726 0l-12.791 14.77a7.404 7.404 0 00-.267-.366 2.275 2.275 0 01-.343-2.111c.204-.601.308-1.23.308-1.87l-.001-.084 2.912-3.37a.689.689 0 00-.07-.97.684.684 0 00-.966.069l-2.173 2.513a5.79 5.79 0 00-.637-1.322 2.383 2.383 0 01-.175-2.243c.303-.707.44-1.46.407-2.236-.11-2.566-2.196-4.704-4.748-4.867a5.038 5.038 0 00-3.812 1.37 5.13 5.13 0 00-1.607 3.72c0 .692.136 1.363.404 1.994.322.76.26 1.606-.166 2.262a5.788 5.788 0 00-.936 3.163c0 .657.109 1.3.323 1.915.24.69.094 1.478-.392 2.111a7.442 7.442 0 00-1.529 4.778 7.37 7.37 0 002.249 5.054A7.347 7.347 0 006.83 34.19v1.624c-1.49.205-2.612 1.436-2.608 2.932 0 .258.034.51.1.756h-.01L4.28 39.5c-.58 0-1.139.122-1.663.361a.688.688 0 00.568 1.253c.34-.156.703-.235 1.08-.237l.395.018a1.102 1.102 0 001.066-1.525 1.563 1.563 0 01-.132-.627c-.002-.858.707-1.553 1.617-1.583 1.264-.042 1.746.78 1.93 1.477.111.42.46.737.89.806.809.132 1.301.443 1.598 1.01.255.487.833.716 1.345.532.35-.125.717-.175 1.093-.147a2.678 2.678 0 012.468 2.485 2.664 2.664 0 01-.713 2.016 2.642 2.642 0 01-1.951.85H4.35c-1.459 0-2.677-1.158-2.716-2.581a2.69 2.69 0 01.056-.626.686.686 0 10-1.342-.284 4.07 4.07 0 00-.085.948c.06 2.16 1.892 3.919 4.087 3.919l36.823-.118a.687.687 0 00.686-.688V25.25c.32.118.662.18 1.01.18a2.896 2.896 0 002.689-1.764 2.912 2.912 0 00-.528-3.169zM12.655 39.496c-.49-.73-1.226-1.184-2.237-1.382-.194-.61-.763-1.852-2.215-2.224v-1.7a7.316 7.316 0 004.452-2.056v7.362zm-.893-8.409a5.959 5.959 0 01-3.559 1.72v-4.052l2.526-2.225a.69.69 0 00.063-.97.685.685 0 00-.968-.064l-1.621 1.427v-6.138l1.621-1.428a.69.69 0 00.063-.971.684.684 0 00-.968-.063l-.716.63v-5.33a.687.687 0 10-1.372 0v5.33l-.716-.63a.685.685 0 00-.968.063.69.69 0 00.062.97l1.622 1.429v6.138l-1.62-1.427a.685.685 0 00-.969.063.69.69 0 00.063.971l2.526 2.225v4.05c-2.894-.34-5.224-2.806-5.325-5.78a6.06 6.06 0 011.244-3.891c.77-1.003.995-2.276.601-3.406a4.417 4.417 0 01-.246-1.46c0-.86.246-1.695.713-2.411.676-1.041.78-2.369.28-3.552a3.703 3.703 0 01-.295-1.456c0-1.04.417-2.005 1.174-2.717a3.672 3.672 0 012.785-1c1.863.12 3.385 1.68 3.465 3.552a3.715 3.715 0 01-.296 1.635 3.76 3.76 0 00.285 3.538 4.41 4.41 0 01.713 2.411c0 .488-.08.969-.235 1.426a3.618 3.618 0 00.562 3.404 5.984 5.984 0 011.275 3.715 6.003 6.003 0 01-1.769 4.274zm21.214 14.984H21.537v-1.25h11.44v1.25zm-9.448-8.648l3.729-4.248 3.728 4.248v6.022h-7.457v-6.022zm-1.754-.136a.652.652 0 01-.488.22.641.641 0 01-.596-.39.645.645 0 01.114-.704l6.453-7.098 6.452 7.098a.646.646 0 01.115.705.642.642 0 01-.596.39.652.652 0 01-.489-.221l-4.7-5.33a1.044 1.044 0 00-1.565 0l-4.7 5.33zm18.713 8.784h-6.139v-1.48c0-.632-.513-1.146-1.143-1.146h-.848v-4.76c.27.129.566.198.87.198.814 0 1.523-.463 1.852-1.21a2.01 2.01 0 00-.356-2.187l-6.695-7.365a1.046 1.046 0 00-1.543 0l-6.695 7.365a2.01 2.01 0 00-.355 2.187 1.999 1.999 0 001.85 1.21c.305 0 .602-.07.871-.198v4.76h-.848c-.63 0-1.143.514-1.143 1.146v1.48h-3.16a4.06 4.06 0 00-2.839-6.606c-.046-.004-.093-.006-.14-.008v-9.136a7.393 7.393 0 00.877-3.508 7.38 7.38 0 00-.593-2.915l12.946-14.95 13.23 15.277V46.07z" fill="#007A65"/></svg>
